wp-content/themes/canvas/img/layers.svg

<svg height="27" viewBox="0 0 30 27" width="30" xmlns="http://www.w3.org/2000/svg"><path d="m37.8808594 32.4169922 2.211914-1.4208984 4.6435547 2.6953124-14.6630859 9.3603516-14.663086-9.3603516 4.6289063-2.6953124 2.2265625 1.4208984-2.3583984 1.3623047 10.1660156 6.4892578 10.1513672-6.4892578zm-7.8076172 2.7539062-14.663086-9.3603515 14.663086-8.4960938 14.6630859 8.4960938zm-10.1660156-9.2578125 10.1660156 6.4892579 10.1513672-6.4892579-10.1513672-5.8886718z" fill="#93dddf" fill-rule="evenodd" transform="translate(-15 -17)"/></svg>

<?xml version="1.0" encoding="UTF-8"?>
<svg width="30px" height="27px" viewBox="0 0 30 27" version="1.1" xmlns="http://www.w3.org/2000/svg" xmlns:xlink="http://www.w3.org/1999/xlink">
    <!-- Generator: Sketch 51.2 (57519) - http://www.bohemiancoding.com/sketch -->
    <title>layers</title>
    <desc>Created with Sketch.</desc>
    <defs></defs>
    <g id="Page-1" stroke="none" stroke-width="1" fill="none" fill-rule="evenodd">
        <g id="Concept-Two" transform="translate(-339.000000, -2488.000000)" fill="#93DDDF">
            <g id="Group-4" transform="translate(324.000000, 2390.000000)">
                <g id="Group-Copy" transform="translate(0.000000, 81.000000)">
                    <path d="M37.8808594,32.4169922 L40.0927734,30.9960938 L44.7363281,33.6914062 L30.0732422,43.0517578 L15.4101562,33.6914062 L20.0390625,30.9960938 L22.265625,32.4169922 L19.9072266,33.7792969 L30.0732422,40.2685547 L40.2246094,33.7792969 L37.8808594,32.4169922 Z M30.0732422,35.1708984 L15.4101562,25.8105469 L30.0732422,17.3144531 L44.7363281,25.8105469 L30.0732422,35.1708984 Z M19.9072266,25.9130859 L30.0732422,32.4023438 L40.2246094,25.9130859 L30.0732422,20.0244141 L19.9072266,25.9130859 Z" id="layers"></path>
                </g>
            </g>
        </g>
    </g>
</svg>
